X:1
T:Choix de chansons. Tome 1
T:Dans ces beaux lieux
T:Dans ces beaux lieux
T:Jean Benjamin de La Borde
C:Jean Benjamin de La Borde
Z:Jean Benjamin de La Borde
%%score 1 { 2 | ( 3 4 ) }
L:1/8
M:3/4
K:Eb
V:1 treble nm="Ténor" snm="T."
V:2 treble nm="Clavecin" snm="Cla."
V:3 bass 
V:4 bass 
V:1
 z B (AG) (FE) |{/G} F2{/E} D2 E2 | F2 (F2 G) A |{/B} A4 G2 | z2 F2 A2 | G2 B3 (A/G/) | %6
w: Dans ces * beau *|lieux mon I-|ris doit * se|ren- dre|ha- tez|vous doux mo- *|
w: A- vec * trans- *|port j'ai vu|le- ver * l'au-|ro- re.|Son é-|clat, sa fraî- *|
w: Mais en * son- *|geant aux char-|mes de * la|vu- e|Je n'ai|pu dans mon *|
{/G} F2{/E} D2 E2 | F2 (F2 G) A | (G4{/G} F2) || z f e d c B |{/B} =A6 | z f d B F A | G6 | %13
w: ment qui flat-|tez mon * es-|poir *|Ah! s'il est rien d'é-|gal|au plai- sir de la|voir|
w: cheur me re-|tra- çaient * I-|ris. *|Cent fois dans mon ar-|deur|je m'y fe- rais mé-|pris.|
w: cœur fai- re|naî- tre * l'es-|poir: *|J'ai pleu- ré de plai-|sir,|de- vant bien- tôt la|voir|
 c2 d3 e | B4 =B2 | c =B (cd) (ed) |{/d} c2 B2 z2 | z A (GA) (cA) |{/A} G F G A B2- | %19
w: C'est seu- le-|ment le|cha- grin de * l'at- *|ten- dre|c'est seu- * le- *|ment le cha- grin de|
w: Si mon I-|ris n'é-|tait plus fraî- * che *|en- core.|Si mon * I- *|ris n'é- tait plus fraî-|
w: Et de dou-|leur de|l'a- voir dé- * jà *|vu- e.|Et de * dou- *|leur de l'a- voir dé-|
 B c{GF} (G2 F>E) | E6!D.C.! :| %21
w: * l'at- ten- * *|dre.|
w: * che en- * *|core.|
w: * jà vu- * *|e.|
V:2
 z/ e/G/B/ z/ e/G/B/ z/ e/G/B/ | z/ d/F/A/ z/ d/F/A/ z/ e/G/B/ | z/ f/A/c/ z/ e/G/B/ z/ d/F/A/ | %3
 [FAd]4 [GBe]2 | z/ d/F/A/ z/ d/F/A/ z/ d/F/A/ | z/ e/G/B/ [Bg]3 [Af]/[Ge]/ | %6
 z/ d/F/A/ z/ d/F/A/ z/ e/G/B/ | z/ d/F/A/ z/ e/G/B/ z/ e/G/B/ | [Ge]4 [Fd]2 || %9
 z/ B/D/F/ z/ B/D/F/ z/ B/D/F/ | z/ =A/E/A/ z/ A/E/A/ z/ A/E/A/ | z/ B/F/B/ z/ B/F/B/ z/ B/F/B/ | %12
 z/ B/G/B/ z/ B/G/B/ z/ B/G/B/ | z/ c/E/c/ z/ c/E/c/ z/ c/E/c/ | z/ B/E/B/ z/ B/E/B/ z/ B/E/B/ | %15
 z/ c/E/c/ z/ c/E/c/ z/ c/E/c/ | z/ B/E/B/ z/ B/E/B/ z/ B/E/B/ | %17
 z/ D/[I:staff +1]A,/[I:staff -1]D/ z/ D/[I:staff +1]A,/[I:staff -1]D/ z/ D/[I:staff +1]A,/[I:staff -1]D/ | %18
 EFEE E2 | [CF]2 E2 [DFA]2 | [EGB]6 :| %21
V:3
[I:staff -1] E2 E2[I:staff +1] E,2 | A,2 A,,2 G,2 | A,2 B,2 B,,2 | E,2 E,,4 | B,2 B,,2 B,2 | %5
 B,2 B,2 B,2 | A,2 A,,2 G,2 | F,2 E,2 E,,2 | B,2 B,,4 || B,2 B,,2 B,2 | C2 C,2 C2 | %11
[I:staff -1] D2[I:staff +1] D,2[I:staff -1] D2 | E2[I:staff +1] E,2[I:staff -1] E2 | %13
[I:staff +1] A,2 A,,2 A,2 | G,2 G,,2 G,2 | A,2 A,,2 A,2 | G,2 G,,2 G,2 | F,2 F,,2 F,2 | %18
 E,D,E,F, G,2 | A,2 B,2 B,,2 | E,,6 :| %21
V:4
 x6 | x6 | x6 | x6 | x6 | x6 | x6 | x6 | x6 || x6 | x6 | x6 | x6 | x6 | x6 | x6 | x6 | x6 | %18
 [G,B,][A,B,][G,B,]A, B,2 | x6 | x6 :| %21

